; generated by PrusaSlicer 2.6.0+win64 on 2023-08-15 at 10:28:52 UTC


;
;
; 

; external perimeters extrusion width = 0.45mm
; perimeters extrusion width = 0.45mm
; infill extrusion width = 0.45mm
; solid infill extrusion width = 0.45mm
; top infill extrusion width = 0.40mm
; support material extrusion width = 0.35mm
; first layer extrusion width = 0.42mm

; external perimeters extrusion width = 0.45mm
; perimeters extrusion width = 0.45mm
; infill extrusion width = 0.45mm
; solid infill extrusion width = 0.45mm
; top infill extrusion width = 0.40mm
; support material extrusion width = 0.35mm
; first layer extrusion width = 0.42mm

; external perimeters extrusion width = 0.45mm
; perimeters extrusion width = 0.45mm
; infill extrusion width = 0.45mm
; solid infill extrusion width = 0.45mm
; top infill extrusion width = 0.40mm
; support material extrusion width = 0.35mm
; first layer extrusion width = 0.42mm

M73 P0 R148
M73 Q0 S149
M201 X1000 Y1000 Z200 E5000 ; sets maximum accelerations, mm/sec^2
M203 X200 Y200 Z12 E120 ; sets maximum feedrates, mm / sec
M204 S1250 T1250 ; sets acceleration (S) and retract acceleration (R), mm/sec^2
M205 X8.00 Y8.00 Z0.40 E4.50 ; sets the jerk limits, mm/sec
M205 S0 T0 ; sets the minimum extruding and travel feed rate, mm/sec
;TYPE:Custom
M862.3 P "MK3S" ; printer model check
M862.1 P0.4 ; nozzle diameter check
M115 U3.12.2 ; tell printer latest fw version
G90 ; use absolute coordinates
M83 ; extruder relative mode
M104 S215 ; set extruder temp
M140 S60 ; set bed temp
M190 S60 ; wait for bed temp
M109 S215 ; wait for extruder temp
G28 W ; home all without mesh bed level
G80 ; mesh bed leveling

G1 Z0.2 F720
G1 Y-3 F1000 ; go outside print area
G92 E0
G1 X60 E9 F1000 ; intro line
G1 X100 E12.5 F1000 ; intro line

G92 E0
M221 S95

; Don't change E values below. Excessive value can damage the printer.
M907 E430 ; set extruder motor current
G21 ; set units to millimeters
G90 ; use absolute coordinates
M83 ; use relative distances for extrusion
M900 K0.05 ; Filament gcode LA 1.5
M900 K30 ; Filament gcode LA 1.0
M107
;LAYER_CHANGE
;Z:0.2
;HEIGHT:0.2
;BEFORE_LAYER_CHANGE
G92 E0.0
;0.2


G1 E-.8 F2100
G1 Z.4 F720
;AFTER_LAYER_CHANGE
;0.2
G1 X25.915 Y57.868 F10800
G1 Z.2 F720
G1 E.8 F2100
M204 S800
;TYPE:Skirt/Brim
;WIDTH:0.42
G1 F1200
G1 X26.636 Y57.684 E.02333
G1 X195.791 Y42.071 E5.32628
G1 X205.149 Y42.063 E.29341
G1 X206.1 Y42.291 E.03066
G1 X206.8 Y42.72 E.02574
G1 X207.124 Y43.035 E.01417
G1 X207.634 Y43.868 E.03062
G1 X207.84 Y44.921 E.03364
G1 X208.342 Y152.588 E3.37586
G1 X208.342 Y181.599 E.90962
G1 X208.251 Y182.309 E.02244
G1 X207.896 Y183.135 E.02819
G1 X207.302 Y183.811 E.02822
G1 X206.601 Y184.241 E.02578
G1 X206.098 Y184.405 E.01659
G1 X205.464 Y184.476 E.02
G1 X196.157 Y184.444 E.29182
G1 X49.568 Y162.317 E4.64826
G1 X48.741 Y161.932 E.0286
G1 X48.093 Y161.329 E.02775
G1 X24.976 Y131.508 E1.18305
G1 X24.477 Y130.052 E.04826
M73 P0 R147
G1 X24.477 Y60.052 E2.1948
G1 X24.869 Y58.744 E.04281
G1 X25.869 Y57.907 E.04089
M204 S1000
; printing object sumec plocha s držákem motorů.stl id:0 copy 0
;WIPE_START
G1 F8640
G1 X26.636 Y57.684 E-.18444
G1 X29.291 Y57.439 E-.61556
;WIPE_END
G1 Z.6 F720
G1 X102.712 Y129.691 F10800
G1 Z.2 F720
M73 Q0 S148
G1 E.8 F2100
M204 S800
;TYPE:Perimeter
;WIDTH:0.419999
G1 F1200
G1 X102.69 Y129.83 E.00441
G1 X102.69 Y158.887 E.91106
G1 X51.019 Y158.887 E1.62011
G1 X51.019 Y129.83 E.91106
G1 X51.006 Y129.677 E.00481
G1 X50.911 Y129.394 E.00936
G1 X50.748 Y129.169 E.00871
G1 X50.445 Y128.962 E.01151
G1 X50.076 Y128.887 E.01181
G1 X28.019 Y128.887 E.69158
G1 X28.019 Y61.216 E2.12177
G1 X125.69 Y61.216 E3.0624
G1 X125.69 Y128.887 E2.12177
G1 X104.081 Y128.887 E.67753
G1 X103.418 Y128.912 E.0208
G1 X103.112 Y129.044 E.01045
G1 X102.88 Y129.263 E.01
G1 X102.736 Y129.539 E.00976
G1 X102.722 Y129.632 E.00295
M204 S1000
G1 X103.091 Y129.742 F10800
M204 S800
G1 F1200
G1 X103.067 Y129.83 E.00286
G1 X103.067 Y159.264 E.92288
G1 X50.642 Y159.264 E1.64375
G1 X50.642 Y129.83 E.92288
G1 X50.634 Y129.738 E.0029
G1 X50.532 Y129.496 E.00823
G1 X50.337 Y129.329 E.00805
G1 X50.076 Y129.264 E.00843
G1 X27.642 Y129.264 E.7034
G1 X27.642 Y60.839 E2.14541
G1 X126.067 Y60.839 E3.08604
G1 X126.067 Y129.264 E2.14541
G1 X103.595 Y129.266 E.70459
G1 X103.321 Y129.359 E.00907
G1 X103.142 Y129.55 E.00821
G1 X103.106 Y129.684 E.00435
M204 S1000
G1 X103.444 Y129.83 F10800
M204 S800
;TYPE:External perimeter
G1 F1200
G1 X103.444 Y159.498 E.93022
G1 X103.427 Y159.585 E.00278
G1 X103.328 Y159.642 E.00358
G1 X50.408 Y159.642 E1.65927
G1 X50.313 Y159.622 E.00304
G1 X50.264 Y159.516 E.00366
G1 X50.264 Y129.83 E.93078
G1 X50.21 Y129.698 E.00447
G1 X50.076 Y129.642 E.00455
G1 X27.264 Y129.642 E.71525
G1 X27.264 Y60.462 E2.16909
G1 X126.444 Y60.462 E3.10971
G1 X126.444 Y129.642 E2.16909
M73 P1 R146
M73 Q1 S148
G1 X103.633 Y129.642 E.71522
G1 X103.516 Y129.682 E.00388
G1 X103.471 Y129.776 E.00327
M204 S1000
G1 X103.058 Y129.934 F10800
;WIPE_START
G1 F8640
G1 X103.468 Y133.241 E-.8
;WIPE_END
G1 Z.6 F720
G1 X118.077 Y65.592 F10800
G1 Z.2 F720
M73 Q1 S147
G1 E.8 F2100
M204 S800
;TYPE:Perimeter
G1 F1200
G1 X118.089 Y65.491 E.00319
G1 X118.228 Y65.03 E.0151
G1 X118.444 Y64.6 E.01509
G1 X118.732 Y64.214 E.0151
G1 X119.082 Y63.883 E.0151
G1 X119.485 Y63.619 E.01511
G1 X119.927 Y63.429 E.01508
G1 X120.396 Y63.318 E.01511
G1 X120.839 Y63.291 E.01392
G1 X121.355 Y63.346 E.01627
G1 X121.816 Y63.485 E.0151
G1 X122.246 Y63.701 E.01509
G1 X122.632 Y63.989 E.0151
G1 X122.963 Y64.339 E.0151
G1 X123.227 Y64.742 E.01511
G1 X123.417 Y65.184 E.01508
G1 X123.528 Y65.653 E.01511
G1 X123.556 Y66.134 E.01511
G1 X123.5 Y66.612 E.01509
G1 X123.361 Y67.073 E.0151
G1 X123.145 Y67.503 E.01509
G1 X122.963 Y67.764 E.00998
G1 X122.507 Y68.22 E.02022
G1 X122.104 Y68.484 E.01511
G1 X121.662 Y68.675 E.0151
G1 X121.193 Y68.785 E.0151
G1 X120.712 Y68.813 E.01511
G1 X120.234 Y68.757 E.01509
G1 X119.773 Y68.618 E.0151
G1 X119.376 Y68.42 E.01391
G1 X118.957 Y68.114 E.01627
G1 X118.626 Y67.764 E.0151
G1 X118.333 Y67.3 E.01721
G1 X118.172 Y66.919 E.01297
G1 X118.061 Y66.45 E.01511
G1 X118.033 Y65.969 E.01511
G1 X118.07 Y65.651 E.01004
M204 S1000
G1 X118.448 Y65.641 F10800
M204 S800
G1 F1200
G1 X118.569 Y65.189 E.01467
G1 X118.753 Y64.816 E.01304
G1 X118.999 Y64.48 E.01306
G1 X119.299 Y64.192 E.01304
G1 X119.644 Y63.961 E.01302
G1 X120.025 Y63.793 E.01306
G1 X120.429 Y63.693 E.01305
G1 X120.811 Y63.667 E.01201
G1 X121.257 Y63.711 E.01405
G1 X121.657 Y63.826 E.01305
G1 X122.03 Y64.01 E.01304
G1 X122.366 Y64.256 E.01306
G1 X122.654 Y64.556 E.01304
G1 X122.885 Y64.901 E.01302
G1 X123.053 Y65.282 E.01306
G1 X123.153 Y65.686 E.01305
G1 X123.18 Y66.101 E.01304
G1 X123.135 Y66.514 E.01303
G1 X123.02 Y66.914 E.01305
G1 X122.836 Y67.287 E.01304
G1 X122.654 Y67.547 E.00995
G1 X122.29 Y67.911 E.01614
G1 X121.945 Y68.142 E.01302
G1 X121.564 Y68.31 E.01306
G1 X121.16 Y68.41 E.01305
G1 X120.745 Y68.437 E.01304
G1 X120.332 Y68.392 E.01303
G1 X119.932 Y68.277 E.01305
G1 X119.588 Y68.108 E.01202
G1 X119.223 Y67.848 E.01405
G1 X118.935 Y67.547 E.01306
G1 X118.675 Y67.14 E.01514
G1 X118.536 Y66.821 E.01091
G1 X118.436 Y66.417 E.01305
G1 X118.409 Y66.002 E.01304
G1 X118.441 Y65.701 E.00949
M204 S1000
G1 X118.812 Y65.748 F10800
M204 S800
;TYPE:External perimeter
G1 F1200
G1 X118.911 Y65.349 E.01289
G1 X119.062 Y65.032 E.01101
G1 X119.265 Y64.747 E.01097
G1 X119.515 Y64.501 E.011
G1 X119.804 Y64.302 E.011
G1 X120.122 Y64.157 E.01096
G1 X120.462 Y64.069 E.01101
G1 X120.783 Y64.043 E.0101
G1 X121.16 Y64.075 E.01186
G1 X121.497 Y64.168 E.01096
G1 X121.814 Y64.319 E.01101
G1 X122.241 Y64.665 E.01723
G1 X122.544 Y65.061 E.01563
G1 X122.689 Y65.379 E.01096
G1 X122.777 Y65.719 E.01101
G1 X122.805 Y66.068 E.01098
G1 X122.771 Y66.417 E.01099
G1 X122.678 Y66.754 E.01096
G1 X122.527 Y67.071 E.01101
G1 X122.345 Y67.331 E.00995
G1 X122.074 Y67.602 E.01202
G1 X121.785 Y67.801 E.011
G1 X121.467 Y67.946 E.01096
G1 X121.127 Y68.034 E.01101
G1 X120.778 Y68.062 E.01098
G1 X120.429 Y68.028 E.01099
G1 X120.092 Y67.935 E.01096
G1 X119.8 Y67.796 E.01014
G1 X119.49 Y67.581 E.01183
G1 X119.244 Y67.331 E.011
G1 X119.017 Y66.981 E.01308
G1 X118.9 Y66.724 E.00885
G1 X118.812 Y66.384 E.01101
G1 X118.784 Y66.035 E.01098
G1 X118.806 Y65.808 E.00715
M204 S1000
G1 X118.502 Y65.495 F10800
;WIPE_START
G1 F8640
G1 X118.911 Y65.349 E-.10872
G1 X119.062 Y65.032 E-.08108
G1 X119.265 Y64.747 E-.08079
G1 X119.515 Y64.501 E-.08099
G1 X119.804 Y64.302 E-.08102
G1 X120.122 Y64.157 E-.0807
G1 X120.462 Y64.069 E-.08109
G1 X120.783 Y64.043 E-.07436
G1 X121.16 Y64.075 E-.08736
G1 X121.343 Y64.126 E-.04389
;WIPE_END
G1 Z.6 F720
G1 X97.869 Y72.099 F10800
G1 Z.2 F720
G1 E.8 F2100
M204 S800
;TYPE:Perimeter
G1 F1200
G1 X97.661 Y72.232 E.00774
G1 X97.31 Y72.3 E.01121
G1 X90.267 Y72.3 E.22083
G1 X89.902 Y72.226 E.01168
G1 X89.6 Y72.023 E.01141
G1 X89.399 Y71.725 E.01127
G1 X89.324 Y71.357 E.01178
G1 X89.324 Y63.314 E.25218
G1 X89.362 Y63.05 E.00836
G1 X89.513 Y62.748 E.01059
G1 X89.823 Y62.482 E.01281
G1 X90.104 Y62.386 E.00931
G1 X90.267 Y62.371 E.00513
G1 X97.31 Y62.371 E.22083
G1 X97.754 Y62.482 E.01435
G1 X98.064 Y62.748 E.01281
G1 X98.215 Y63.05 E.01059
G1 X98.253 Y63.314 E.00836
G1 X98.253 Y71.357 E.25218
G1 X98.249 Y71.438 E.00254
G1 X98.163 Y71.757 E.01036
G1 X97.958 Y72.042 E.01101
G1 X97.919 Y72.066 E.00144
M204 S1000
G1 X97.653 Y71.787 F10800
M204 S800
G1 F1200
G1 X97.581 Y71.854 E.00308
G1 X97.31 Y71.923 E.00877
G1 X90.267 Y71.923 E.22083
G1 X89.993 Y71.852 E.00887
G1 X89.789 Y71.66 E.00878
G1 X89.701 Y71.357 E.00989
G1 X89.701 Y63.314 E.25218
G1 X89.724 Y63.156 E.00501
G1 X89.815 Y62.975 E.00635
G1 X90.001 Y62.815 E.00769
G1 X90.267 Y62.748 E.0086
G1 X97.31 Y62.748 E.22083
G1 X97.576 Y62.815 E.0086
G1 X97.762 Y62.975 E.00769
G1 X97.853 Y63.156 E.00635
G1 X97.876 Y63.314 E.00501
G1 X97.876 Y71.357 E.25218
G1 X97.783 Y71.667 E.01015
G1 X97.697 Y71.746 E.00366
M204 S1000
G1 X97.42 Y71.51 F10800
M204 S800
;TYPE:External perimeter
G1 F1200
G1 X97.31 Y71.546 E.00363
G1 X90.267 Y71.546 E.22083
G1 X90.123 Y71.478 E.00499
G1 X90.078 Y71.357 E.00405
G1 X90.078 Y63.314 E.25218
G1 X90.116 Y63.201 E.00374
G1 X90.267 Y63.126 E.00529
G1 X97.31 Y63.126 E.22083
G1 X97.461 Y63.201 E.00529
G1 X97.498 Y63.314 E.00373
G1 X97.498 Y71.357 E.25218
G1 X97.45 Y71.458 E.00351
M204 S1000
G1 X97.444 Y71.623 F10800
;WIPE_START
G1 F8640
G1 X97.31 Y71.546 E-.03818
G1 X94.011 Y71.546 E-.76182
;WIPE_END
G1 Z.6 F720
G1 X60.163 Y72.251 F10800
G1 Z.2 F720
G1 E.8 F2100
M204 S800
;TYPE:Perimeter
G1 F1200
G1 X60.082 Y72.283 E.00273
G1 X59.141 Y72.3 E.02951
G1 X52.865 Y72.3 E.19678
G1 X52.533 Y72.239 E.01058
G1 X52.234 Y72.058 E.01096
G1 X52.025 Y71.785 E.01078
G1 X51.925 Y71.426 E.01168
G1 X51.922 Y63.314 E.25435
G1 X51.96 Y63.05 E.00836
G1 X52.111 Y62.748 E.01059
G1 X52.421 Y62.482 E.01281
G1 X52.702 Y62.386 E.00931
G1 X52.865 Y62.371 E.00513
G1 X59.908 Y62.371 E.22083
G1 X60.352 Y62.482 E.01435
G1 X60.662 Y62.748 E.01281
G1 X60.813 Y63.05 E.01059
G1 X60.851 Y63.314 E.00836
G1 X60.851 Y71.357 E.25218
G1 X60.776 Y71.725 E.01178
G1 X60.685 Y71.89 E.00591
G1 X60.425 Y72.145 E.01142
G1 X60.219 Y72.228 E.00696
M204 S1000
G1 X60.017 Y71.896 F10800
M204 S800
G1 F1200
G1 X59.908 Y71.923 E.00352
G1 X52.865 Y71.923 E.22083
G1 X52.598 Y71.856 E.00863
G1 X52.391 Y71.665 E.00883
G1 X52.301 Y71.399 E.0088
G1 X52.299 Y63.314 E.2535
G1 X52.322 Y63.156 E.00501
G1 X52.413 Y62.975 E.00635
G1 X52.599 Y62.815 E.00769
G1 X52.865 Y62.748 E.0086
G1 X59.908 Y62.748 E.22083
G1 X60.174 Y62.815 E.0086
G1 X60.36 Y62.975 E.00769
G1 X60.451 Y63.156 E.00635
G1 X60.474 Y63.314 E.00501
G1 X60.474 Y71.357 E.25218
G1 X60.408 Y71.621 E.00853
G1 X60.374 Y71.677 E.00205
G1 X60.164 Y71.861 E.00875
G1 X60.075 Y71.883 E.00287
M204 S1000
G1 X59.926 Y71.545 F10800
M204 S800
;TYPE:External perimeter
G1 F1200
G1 X52.865 Y71.546 E.22139
G1 X52.718 Y71.475 E.00512
G1 X52.676 Y71.357 E.00393
G1 X52.676 Y63.314 E.25218
G1 X52.714 Y63.201 E.00374
G1 X52.865 Y63.126 E.00529
G1 X59.908 Y63.126 E.22083
G1 X60.059 Y63.201 E.00529
G1 X60.096 Y63.314 E.00373
G1 X60.096 Y71.357 E.25218
G1 X60.063 Y71.464 E.00351
G1 X59.978 Y71.514 E.00309
M204 S1000
G1 X59.829 Y71.933 F10800
;WIPE_START
G1 F8640
G1 X56.513 Y71.53 E-.8
;WIPE_END
G1 Z.6 F720
G1 X35.512 Y66.511 F10800
G1 Z.2 F720
G1 E.8 F2100
M204 S800
;TYPE:Perimeter
G1 F1200
G1 X35.5 Y66.612 E.00319
G1 X35.361 Y67.073 E.0151
G1 X35.145 Y67.503 E.01509
G1 X34.857 Y67.889 E.0151
G1 X34.507 Y68.22 E.0151
G1 X34.104 Y68.484 E.01511
G1 X33.662 Y68.674 E.01508
G1 X33.193 Y68.785 E.01511
G1 X32.712 Y68.813 E.01511
G1 X32.234 Y68.757 E.01509
G1 X31.773 Y68.618 E.0151
G1 X31.343 Y68.402 E.01509
G1 X30.957 Y68.114 E.0151
G1 X30.626 Y67.764 E.0151
G1 X30.362 Y67.361 E.01511
G1 X30.171 Y66.919 E.0151
G1 X30.061 Y66.45 E.0151
G1 X30.033 Y66.134 E.00995
G1 X30.089 Y65.491 E.02024
G1 X30.228 Y65.03 E.0151
G1 X30.444 Y64.6 E.01509
G1 X30.732 Y64.214 E.0151
G1 X31.082 Y63.883 E.0151
G1 X31.485 Y63.619 E.01511
G1 X31.927 Y63.429 E.01508
G1 X32.396 Y63.318 E.01511
G1 X32.839 Y63.291 E.01392
G1 X33.355 Y63.346 E.01627
G1 X33.816 Y63.485 E.0151
G1 X34.246 Y63.701 E.01509
G1 X34.632 Y63.989 E.0151
G1 X34.963 Y64.339 E.0151
G1 X35.227 Y64.742 E.01511
G1 X35.417 Y65.184 E.01508
G1 X35.528 Y65.653 E.01511
G1 X35.556 Y66.134 E.01511
G1 X35.519 Y66.452 E.01004
M204 S1000
G1 X35.141 Y66.462 F10800
M204 S800
G1 F1200
G1 X35.02 Y66.914 E.01467
G1 X34.836 Y67.287 E.01304
G1 X34.59 Y67.623 E.01306
G1 X34.29 Y67.911 E.01304
G1 X33.945 Y68.142 E.01302
G1 X33.564 Y68.31 E.01306
G1 X33.16 Y68.41 E.01305
G1 X32.745 Y68.437 E.01304
G1 X32.332 Y68.392 E.01303
G1 X31.932 Y68.277 E.01305
G1 X31.559 Y68.093 E.01304
G1 X31.223 Y67.847 E.01306
G1 X30.935 Y67.547 E.01304
G1 X30.704 Y67.202 E.01302
G1 X30.536 Y66.821 E.01306
G1 X30.436 Y66.417 E.01305
G1 X30.409 Y66.101 E.00994
G1 X30.454 Y65.589 E.01612
G1 X30.569 Y65.189 E.01305
G1 X30.753 Y64.816 E.01304
G1 X30.999 Y64.48 E.01306
G1 X31.299 Y64.192 E.01304
G1 X31.644 Y63.961 E.01302
G1 X32.025 Y63.793 E.01306
G1 X32.429 Y63.693 E.01305
G1 X32.811 Y63.667 E.01201
G1 X33.257 Y63.711 E.01405
G1 X33.657 Y63.826 E.01305
G1 X34.03 Y64.01 E.01304
G1 X34.366 Y64.256 E.01306
G1 X34.654 Y64.556 E.01304
G1 X34.885 Y64.901 E.01302
G1 X35.053 Y65.282 E.01306
G1 X35.153 Y65.686 E.01305
G1 X35.18 Y66.101 E.01304
G1 X35.148 Y66.402 E.00949
M204 S1000
G1 X34.774 Y66.384 F10800
M204 S800
;TYPE:External perimeter
G1 F1200
G1 X34.678 Y66.754 E.01199
G1 X34.527 Y67.071 E.01101
G1 X34.324 Y67.356 E.01097
G1 X34.074 Y67.602 E.011
G1 X33.785 Y67.801 E.011
G1 X33.467 Y67.946 E.01096
G1 X33.127 Y68.034 E.01101
G1 X32.778 Y68.062 E.01098
G1 X32.429 Y68.028 E.01099
G1 X32.092 Y67.935 E.01096
G1 X31.775 Y67.784 E.01101
G1 X31.49 Y67.581 E.01097
G1 X31.244 Y67.331 E.011
G1 X31.045 Y67.042 E.011
G1 X30.9 Y66.724 E.01096
G1 X30.812 Y66.384 E.01101
G1 X30.784 Y66.068 E.00995
G1 X30.818 Y65.686 E.01202
G1 X30.911 Y65.349 E.01096
G1 X31.062 Y65.032 E.01101
G1 X31.408 Y64.605 E.01723
G1 X31.804 Y64.302 E.01563
G1 X32.122 Y64.157 E.01096
G1 X32.462 Y64.069 E.01101
G1 X32.783 Y64.043 E.0101
G1 X33.16 Y64.075 E.01186
G1 X33.497 Y64.168 E.01096
G1 X33.814 Y64.319 E.01101
G1 X34.099 Y64.522 E.01097
G1 X34.345 Y64.772 E.011
G1 X34.544 Y65.061 E.011
G1 X34.689 Y65.379 E.01096
G1 X34.777 Y65.719 E.01101
G1 X34.805 Y66.068 E.01098
G1 X34.78 Y66.325 E.0081
M204 S1000
G1 X35.068 Y66.629 F10800
;WIPE_START
G1 F8640
G1 X34.678 Y66.754 E-.10182
G1 X34.527 Y67.071 E-.08108
G1 X34.324 Y67.356 E-.08079
G1 X34.074 Y67.602 E-.08099
G1 X33.785 Y67.801 E-.08102
G1 X33.467 Y67.946 E-.0807
G1 X33.127 Y68.034 E-.08109
G1 X32.778 Y68.062 E-.08084
G1 X32.429 Y68.028 E-.08097
G1 X32.217 Y67.97 E-.0507
;WIPE_END
G1 Z.6 F720
G1 X68.35 Y124.793 F10800
G1 Z.2 F720
G1 E.8 F2100
M204 S800
;TYPE:Perimeter
G1 F1200
G1 X68.556 Y124.834 E.00659
G1 X68.867 Y125.042 E.01173
G1 X69.057 Y125.319 E.01053
G1 X69.137 Y125.621 E.0098
G1 X69.141 Y132.749 E.22349
G1 X69.088 Y133.061 E.00992
G1 X68.907 Y133.37 E.01123
G1 X68.614 Y133.595 E.01158
G1 X68.198 Y133.692 E.01339
