; generated by PrusaSlicer 2.6.1+win64 on 2023-11-14 at 12:30:03 UTC


;
;
; 

; external perimeters extrusion width = 0.45mm
; perimeters extrusion width = 0.45mm
; infill extrusion width = 0.45mm
; solid infill extrusion width = 0.45mm
; top infill extrusion width = 0.40mm
; first layer extrusion width = 0.42mm

; external perimeters extrusion width = 0.45mm
; perimeters extrusion width = 0.45mm
; infill extrusion width = 0.45mm
; solid infill extrusion width = 0.45mm
; top infill extrusion width = 0.40mm
; first layer extrusion width = 0.42mm

; external perimeters extrusion width = 0.45mm
; perimeters extrusion width = 0.45mm
; infill extrusion width = 0.45mm
; solid infill extrusion width = 0.45mm
; top infill extrusion width = 0.40mm
; first layer extrusion width = 0.42mm

M73 P0 R67
M73 Q0 S69
M201 X1000 Y1000 Z200 E5000 ; sets maximum accelerations, mm/sec^2
M203 X200 Y200 Z12 E120 ; sets maximum feedrates, mm / sec
M204 S1250 T1250 ; sets acceleration (S) and retract acceleration (R), mm/sec^2
M205 X8.00 Y8.00 Z0.40 E4.50 ; sets the jerk limits, mm/sec
M205 S0 T0 ; sets the minimum extruding and travel feed rate, mm/sec
;TYPE:Custom
M862.3 P "MK3S" ; printer model check
M862.1 P0.4 ; nozzle diameter check
M115 U3.13.0 ; tell printer latest fw version
G90 ; use absolute coordinates
M83 ; extruder relative mode
M104 S215 ; set extruder temp
M140 S60 ; set bed temp
M190 S60 ; wait for bed temp
M109 S215 ; wait for extruder temp
G28 W ; home all without mesh bed level
G80 ; mesh bed leveling

G1 Z0.2 F720
G1 Y-3 F1000 ; go outside print area
G92 E0
G1 X60 E9 F1000 ; intro line
G1 X100 E12.5 F1000 ; intro line

G92 E0
M221 S95

; Don't change E values below. Excessive value can damage the printer.

M907 E538 ; set extruder motor current
G21 ; set units to millimeters
G90 ; use absolute coordinates
M83 ; use relative distances for extrusion
M900 K0.05 ; Filament gcode LA 1.5
M900 K30 ; Filament gcode LA 1.0
M107
;LAYER_CHANGE
;Z:0.2
;HEIGHT:0.2
;BEFORE_LAYER_CHANGE
G92 E0.0
;0.2


G1 E-.8 F2100
G1 Z.4 F720
;AFTER_LAYER_CHANGE
;0.2
G1 X76.805 Y39.059 F10800
G1 Z.2 F720
G1 E.8 F2100
M204 S800
;TYPE:Skirt/Brim
;WIDTH:0.42
G1 F1200
G1 X77.555 Y38.053 E.03934
G1 X87.126 Y27.835 E.43897
G1 X88.225 Y26.916 E.04492
G1 X89.453 Y26.181 E.04487
G1 X90.604 Y25.704 E.03907
G1 X91.993 Y25.355 E.0449
G1 X93.513 Y25.227 E.04783
G1 X156.606 Y25.228 E1.97824
G1 X158.206 Y25.39 E.05042
G1 X159.919 Y25.887 E.05592
G1 X161.201 Y26.524 E.04488
G1 X162.51 Y27.475 E.05073
G1 X172.583 Y38.181 E.4609
G1 X172.993 Y38.708 E.02094
G1 X173.535 Y39.648 E.03402
G1 X174.023 Y41.15 E.04952
G1 X174.138 Y42.245 E.03452
G1 X178.625 Y140.167 E3.0735
G1 X178.627 Y155.275 E.4737
G1 X177.931 Y156.956 E.05705
G1 X150.838 Y184.049 E1.20135
G1 X149.157 Y184.746 E.05706
M73 Q0 S68
G1 X100.843 Y184.746 E1.51485
G1 X99.162 Y184.049 E.05706
G1 X72.069 Y156.956 E1.20135
G1 X71.373 Y155.275 E.05705
G1 X71.375 Y140.166 E.47373
G1 X75.888 Y42.244 E3.07353
G1 X76.003 Y41.15 E.03449
G1 X76.24 Y40.266 E.0287
G1 X76.78 Y39.113 E.03992
M204 S1000
; printing object oddělovací plocha.stl id:2 copy 0
;WIPE_START
G1 F8640
G1 X77.555 Y38.053 E-.3032
G1 X79.026 Y36.483 E-.4968
;WIPE_END
G1 Z.6 F720
G1 X164.093 Y68.278 F10800
G1 Z.2 F720
G1 E.8 F2100
M204 S800
;TYPE:Perimeter
;WIDTH:0.419999
G1 F1200
G1 X164.039 Y68.318 E.00211
G1 X163.379 Y69.059 E.03111
G1 X163.087 Y69.555 E.01805
G1 X162.848 Y70.033 E.01676
G1 X162.593 Y70.802 E.0254
G1 X159.563 Y84.326 E.43455
G1 X159.34 Y84.991 E.02199
G1 X159.002 Y85.564 E.02086
G1 X158.553 Y86.056 E.02088
G1 X158.013 Y86.444 E.02085
G1 X157.404 Y86.713 E.02087
G1 X156.987 Y86.801 E.01336
G1 X156.399 Y86.871 E.01857
G1 X134.548 Y86.871 E.68512
G1 X133.847 Y86.798 E.0221
G1 X133.21 Y86.591 E.021
G1 X132.63 Y86.257 E.02099
G1 X132.131 Y85.81 E.02101
G1 X131.737 Y85.268 E.02101
G1 X131.463 Y84.657 E.021
G1 X131.319 Y83.989 E.02143
G1 X131.27 Y83.08 E.02854
G1 X131.191 Y82.523 E.01764
G1 X131.062 Y81.975 E.01765
G1 X130.885 Y81.44 E.01767
G1 X130.66 Y80.924 E.01765
G1 X130.39 Y80.43 E.01765
G1 X130.077 Y79.962 E.01765
G1 X129.724 Y79.524 E.01764
G1 X129.332 Y79.119 E.01767
G1 X128.907 Y78.751 E.01763
G1 X128.449 Y78.422 E.01768
G1 X127.964 Y78.136 E.01765
G1 X127.456 Y77.894 E.01764
G1 X126.928 Y77.699 E.01765
G1 X126.385 Y77.551 E.01765
G1 X125.83 Y77.453 E.01767
G1 X125.269 Y77.405 E.01765
G1 X124.693 Y77.409 E.01806
G1 X123.945 Y77.497 E.02361
G1 X123.05 Y77.714 E.02888
G1 X122.523 Y77.914 E.01767
G1 X122.017 Y78.16 E.01764
G1 X121.534 Y78.45 E.01766
G1 X121.08 Y78.782 E.01763
G1 X120.657 Y79.154 E.01766
G1 X120.269 Y79.562 E.01765
G1 X119.919 Y80.003 E.01765
G1 X119.609 Y80.473 E.01765
G1 X119.344 Y80.97 E.01766
G1 X119.123 Y81.488 E.01766
G1 X118.95 Y82.024 E.01766
G1 X118.826 Y82.573 E.01765
G1 X118.751 Y83.129 E.01759
G1 X118.707 Y83.989 E.027
G1 X118.563 Y84.657 E.02143
G1 X118.289 Y85.268 E.021
G1 X117.895 Y85.81 E.02101
G1 X117.396 Y86.257 E.02101
G1 X116.816 Y86.591 E.02099
G1 X116.179 Y86.798 E.021
G1 X115.478 Y86.871 E.0221
G1 X93.258 Y86.871 E.69669
G1 X92.597 Y86.806 E.02083
G1 X91.994 Y86.623 E.01976
G1 X91.438 Y86.325 E.01978
G1 X90.951 Y85.924 E.01978
G1 X90.552 Y85.436 E.01976
G1 X90.256 Y84.879 E.01978
G1 X90.065 Y84.243 E.02082
G1 X87.446 Y70.875 E.42711
G1 X87.167 Y69.983 E.0293
G1 X86.716 Y69.158 E.02948
G1 X86.113 Y68.437 E.02947
G1 X85.381 Y67.848 E.02946
G1 X84.547 Y67.414 E.02948
G1 X83.753 Y67.172 E.02603
G1 X83.195 Y67.087 E.0177
G1 X81.936 Y67.047 E.03949
G1 X81.271 Y66.906 E.02131
G1 X80.658 Y66.633 E.02104
G1 X80.115 Y66.239 E.02104
G1 X79.666 Y65.74 E.02105
G1 X79.331 Y65.159 E.02103
G1 X79.124 Y64.521 E.02103
G1 X79.05 Y63.818 E.02216
G1 X79.05 Y42.389 E.67189
G1 X79.124 Y41.686 E.02216
G1 X79.331 Y41.048 E.02103
G1 X79.666 Y40.467 E.02103
G1 X80.115 Y39.969 E.02102
G1 X80.658 Y39.574 E.02105
G1 X81.271 Y39.301 E.02104
G1 X81.936 Y39.16 E.02131
M73 P0 R66
G1 X83.322 Y39.106 E.04349
G1 X84.298 Y38.886 E.03137
G1 X85.206 Y38.467 E.03135
G1 X86.008 Y37.87 E.03135
G1 X86.668 Y37.118 E.03137
G1 X87.158 Y36.246 E.03136
G1 X87.451 Y35.32 E.03045
G1 X87.527 Y34.82 E.01586
G1 X87.56 Y34.085 E.02307
G1 X87.623 Y33.427 E.02073
G1 X87.757 Y32.818 E.01955
G1 X88.006 Y32.069 E.02475
G1 X88.274 Y31.517 E.01924
G1 X88.695 Y30.842 E.02494
G1 X89.15 Y30.297 E.02226
G1 X89.641 Y29.82 E.02146
G1 X90.207 Y29.398 E.02214
G1 X90.806 Y29.041 E.02186
G1 X91.453 Y28.764 E.02207
G1 X92.121 Y28.556 E.02194
G1 X92.814 Y28.437 E.02205
G1 X93.528 Y28.391 E.02243
G1 X156.657 Y28.398 E1.97936
G1 X157.454 Y28.467 E.02508
M73 P1 R66
M73 Q1 S68
G1 X158.147 Y28.625 E.02229
G1 X158.795 Y28.845 E.02146
G1 X159.428 Y29.158 E.02214
G1 X160.017 Y29.53 E.02184
G1 X160.558 Y29.98 E.02206
G1 X161.047 Y30.482 E.02197
G1 X161.467 Y31.045 E.02202
G1 X161.825 Y31.647 E.02196
G1 X162.103 Y32.292 E.02202
G1 X162.311 Y32.962 E.022
G1 X162.432 Y33.672 E.02258
G1 X162.511 Y34.913 E.03899
G1 X162.731 Y35.888 E.03134
G1 X163.149 Y36.797 E.03137
G1 X163.747 Y37.599 E.03137
G1 X164.499 Y38.259 E.03137
G1 X165.371 Y38.748 E.03135
G1 X166.297 Y39.042 E.03046
G1 X166.803 Y39.118 E.01604
G1 X168.089 Y39.16 E.04034
G1 X168.755 Y39.301 E.02134
G1 X169.368 Y39.574 E.02104
G1 X169.911 Y39.969 E.02105
G1 X170.359 Y40.467 E.021
G1 X170.695 Y41.048 E.02104
G1 X170.902 Y41.686 E.02103
G1 X170.976 Y42.568 E.02775
G1 X170.976 Y63.818 E.66628
G1 X170.902 Y64.521 E.02216
G1 X170.695 Y65.159 E.02103
G1 X170.359 Y65.74 E.02104
G1 X169.911 Y66.239 E.02103
G1 X169.368 Y66.633 E.02104
G1 X168.755 Y66.906 E.02104
G1 X168.09 Y67.048 E.02132
G1 X166.709 Y67.101 E.04333
G1 X165.74 Y67.318 E.03113
G1 X164.837 Y67.729 E.03111
G1 X164.141 Y68.243 E.02713
M204 S1000
G1 X164.317 Y68.573 F10800
M204 S800
;TYPE:External perimeter
G1 F1200
G1 X163.672 Y69.305 E.03059
G1 X163.206 Y70.153 E.03034
G1 X162.961 Y70.882 E.02411
G1 X159.926 Y84.428 E.43525
G1 X159.685 Y85.148 E.02381
G1 X159.307 Y85.79 E.02336
G1 X158.805 Y86.339 E.02332
G1 X158.201 Y86.774 E.02334
G1 X157.52 Y87.074 E.02333
G1 X156.787 Y87.229 E.02349
G1 X156.409 Y87.248 E.01187
G1 X134.529 Y87.248 E.68603
G1 X133.768 Y87.169 E.02399
G1 X133.056 Y86.938 E.02347
G1 X132.407 Y86.564 E.02349
G1 X131.85 Y86.064 E.02347
G1 X131.409 Y85.459 E.02347
G1 X131.103 Y84.775 E.02349
G1 X130.944 Y84.039 E.02361
G1 X130.897 Y83.132 E.02848
G1 X130.824 Y82.608 E.01659
G1 X130.704 Y82.092 E.01661
G1 X130.538 Y81.589 E.01661
G1 X130.328 Y81.103 E.0166
G1 X130.076 Y80.638 E.01658
G1 X129.783 Y80.197 E.0166
G1 X129.452 Y79.785 E.01657
G1 X129.085 Y79.403 E.01661
G1 X128.685 Y79.056 E.0166
G1 X128.256 Y78.746 E.0166
G1 X127.801 Y78.476 E.01659
G1 X127.324 Y78.247 E.01659
G1 X126.828 Y78.062 E.0166
G1 X126.317 Y77.922 E.01661
G1 X125.796 Y77.829 E.01659
G1 X125.269 Y77.782 E.01659
G1 X124.735 Y77.783 E.01674
G1 X124.032 Y77.864 E.02219
G1 X123.182 Y78.067 E.0274
G1 X122.687 Y78.254 E.01659
G1 X122.21 Y78.484 E.0166
G1 X121.756 Y78.755 E.01658
G1 X121.327 Y79.067 E.01663
G1 X120.929 Y79.415 E.01658
G1 X120.563 Y79.797 E.01659
G1 X120.233 Y80.211 E.0166
G1 X119.941 Y80.653 E.01661
G1 X119.69 Y81.119 E.0166
G1 X119.482 Y81.605 E.01658
G1 X119.318 Y82.108 E.01659
G1 X119.199 Y82.624 E.0166
G1 X119.127 Y83.148 E.01658
G1 X119.082 Y84.039 E.02797
G1 X118.923 Y84.775 E.02361
G1 X118.617 Y85.459 E.02349
G1 X118.176 Y86.064 E.02347
G1 X117.619 Y86.564 E.02347
G1 X116.97 Y86.938 E.02349
G1 X116.258 Y87.169 E.02347
G1 X115.497 Y87.248 E.02399
G1 X93.239 Y87.248 E.69788
G1 X92.523 Y87.178 E.02256
G1 X91.848 Y86.973 E.02212
G1 X91.227 Y86.639 E.02211
G1 X90.682 Y86.191 E.02212
G1 X90.236 Y85.645 E.0221
G1 X89.905 Y85.023 E.02209
G1 X89.699 Y84.333 E.02258
G1 X87.085 Y70.983 E.42653
G1 X86.834 Y70.16 E.02698
G1 X86.424 Y69.397 E.02716
G1 X85.873 Y68.728 E.02717
G1 X85.202 Y68.181 E.02714
G1 X84.437 Y67.774 E.02717
G1 X83.643 Y67.533 E.02602
G1 X83.183 Y67.464 E.01458
G1 X81.891 Y67.423 E.04053
G1 X81.154 Y67.267 E.02362
G1 X80.469 Y66.962 E.02351
G1 X79.862 Y66.521 E.02352
G1 X79.36 Y65.963 E.02353
G1 X78.985 Y65.313 E.02353
G1 X78.753 Y64.6 E.02351
G1 X78.673 Y63.838 E.02402
G1 X78.673 Y42.369 E.67314
G1 X78.753 Y41.608 E.02399
G1 X78.985 Y40.894 E.02354
G1 X79.36 Y40.244 E.02353
G1 X79.862 Y39.687 E.02351
G1 X80.469 Y39.246 E.02352
G1 X81.154 Y38.941 E.02351
G1 X81.891 Y38.784 E.02363
G1 X83.243 Y38.737 E.04242
G1 X84.144 Y38.541 E.02891
G1 X84.985 Y38.162 E.02892
G1 X85.728 Y37.617 E.02889
G1 X86.342 Y36.929 E.02891
G1 X86.799 Y36.129 E.02889
G1 X87.072 Y35.29 E.02766
G1 X87.15 Y34.803 E.01546
G1 X87.183 Y34.068 E.02307
G1 X87.251 Y33.364 E.02218
G1 X87.393 Y32.718 E.02074
G1 X87.656 Y31.927 E.02614
G1 X87.944 Y31.334 E.02067
G1 X88.386 Y30.625 E.0262
G1 X88.832 Y30.085 E.02196
G1 X89.2 Y29.714 E.01638
G1 X89.583 Y29.385 E.01583
G1 X89.988 Y29.09 E.01571
G1 X90.42 Y28.825 E.01589
G1 X91.087 Y28.497 E.02331
G1 X91.792 Y28.257 E.02335
G1 X92.278 Y28.14 E.01567
G1 X93.016 Y28.034 E.02338
G1 X93.521 Y28.014 E.01585
G1 X156.673 Y28.021 E1.98008
G1 X157.508 Y28.093 E.02628
G1 X158.191 Y28.245 E.02194
G1 X158.689 Y28.404 E.01639
G1 X159.156 Y28.597 E.01584
G1 X159.603 Y28.824 E.01572
G1 X160.035 Y29.088 E.01587
G1 X160.63 Y29.533 E.0233
G1 X161.163 Y30.052 E.02333
G1 X161.489 Y30.433 E.01572
G1 X161.918 Y31.041 E.02333
G1 X162.266 Y31.702 E.02342
G1 X162.542 Y32.395 E.02339
G1 X162.726 Y33.118 E.02339
G1 X162.806 Y33.628 E.01619
G1 X162.88 Y34.834 E.03788
G1 X163.076 Y35.735 E.02891
G1 X163.454 Y36.575 E.02888
G1 X163.999 Y37.319 E.02892
G1 X164.687 Y37.932 E.02889
G1 X165.488 Y38.39 E.02893
G1 X166.327 Y38.663 E.02766
G1 X166.816 Y38.741 E.01553
G1 X168.135 Y38.784 E.04138
G1 X168.872 Y38.941 E.02363
G1 X169.557 Y39.246 E.02351
G1 X170.164 Y39.687 E.02352
G1 X170.666 Y40.244 E.02351
G1 X171.041 Y40.894 E.02353
G1 X171.273 Y41.608 E.02354
G1 X171.353 Y42.568 E.0302
G1 X171.353 Y63.838 E.6669
G1 X171.273 Y64.6 E.02402
G1 X171.041 Y65.313 E.02351
G1 X170.666 Y65.963 E.02353
G1 X170.164 Y66.521 E.02353
G1 X169.557 Y66.962 E.02352
G1 X168.872 Y67.267 E.02351
G1 X168.135 Y67.423 E.02362
G1 X166.787 Y67.47 E.04229
G1 X165.892 Y67.663 E.02871
G1 X165.057 Y68.036 E.02867
G1 X164.366 Y68.537 E.02676
M204 S1000
G1 X163.936 Y68.452 F10800
;WIPE_START
G1 F8640
G1 X163.672 Y69.305 E-.23901
G1 X163.206 Y70.153 E-.22342
G1 X162.961 Y70.882 E-.17758
G1 X162.81 Y71.558 E-.15999
;WIPE_END
G1 Z.6 F720
G1 X161.47 Y31.36 F10800
G1 Z.2 F720
G1 E.8 F2100
M204 S800
;TYPE:Solid infill
;WIDTH:0.42106
G1 F1200
G1 X160.481 Y30.37 E.044
G1 X160.165 Y30.078 E.01353
G1 X159.818 Y29.805 E.01388
G1 X159.451 Y29.56 E.01387
G1 X159.066 Y29.344 E.01388
G1 X158.794 Y29.219 E.00941
G1 X161.648 Y32.072 E.12688
G1 X161.86 Y32.616 E.01836
G1 X161.94 Y32.9 E.00928
G1 X157.967 Y28.926 E.17669
G1 X157.3 Y28.794 E.02138
G1 X162.078 Y33.572 E.21246
G1 X162.13 Y34.159 E.01853
G1 X156.714 Y28.743 E.24083
G1 X156.173 Y28.737 E.01701
G1 X162.157 Y34.721 E.26609
G1 X162.167 Y34.913 E.00605
G1 X162.261 Y35.36 E.01436
G1 X155.638 Y28.737 E.2945
G1 X155.104 Y28.737 E.01679
G1 X162.787 Y36.421 E.34166
M204 S1000
;WIPE_START
G1 F8640
G1 X160.337 Y33.971 E-.8
;WIPE_END
G1 Z.6 F720
G1 X168.451 Y39.41 F10800
G1 Z.2 F720
G1 E.8 F2100
M204 S800
G1 F1200
G1 X170.458 Y41.417 E.08924
G1 X170.568 Y41.757 E.01124
G1 X170.604 Y42.098 E.01078
G1 X168.002 Y39.496 E.1157
G1 X167.447 Y39.476 E.01746
G1 X170.636 Y42.665 E.1418
G1 X170.636 Y43.2 E.01682
G1 X166.892 Y39.455 E.1665
G1 X166.688 Y39.448 E.00642
G1 X166.277 Y39.376 E.01312
G1 X170.636 Y43.735 E.19383
G1 X170.636 Y44.27 E.01682
G1 X165.243 Y38.876 E.23983
M204 S1000
;WIPE_START
G1 F8640
G1 X167.693 Y41.326 E-.8
;WIPE_END
G1 Z.6 F720
G1 X170.806 Y44.974 F10800
G1 Z.2 F720
G1 E.8 F2100
M204 S800
G1 F1200
G1 X154.569 Y28.737 E.722
G1 X154.034 Y28.737 E.01682
G1 X170.636 Y45.339 E.73823
G1 X170.636 Y45.874 E.01682
G1 X153.499 Y28.737 E.76202
G1 X152.964 Y28.737 E.01682
G1 X170.636 Y46.409 E.78581
G1 X170.636 Y46.943 E.01679
G1 X152.43 Y28.736 E.80958
G1 X151.895 Y28.736 E.01682
G1 X170.636 Y47.478 E.83337
G1 X170.636 Y48.013 E.01682
G1 X151.36 Y28.736 E.85716
G1 X150.825 Y28.736 E.01682
G1 X170.636 Y48.548 E.88095
G1 X170.636 Y49.083 E.01682
G1 X150.29 Y28.736 E.90473
G1 X149.755 Y28.736 E.01682
G1 X170.636 Y49.617 E.9285
G1 X170.636 Y50.152 E.01682
M73 Q1 S67
G1 X149.221 Y28.736 E.95227
G1 X148.686 Y28.736 E.01682
M73 P2 R66
G1 X170.636 Y50.687 E.97606
G1 X170.636 Y51.222 E.01682
M73 Q2 S67
G1 X148.151 Y28.736 E.99985
G1 X147.616 Y28.736 E.01682
G1 X170.636 Y51.756 E1.02362
G1 X170.636 Y52.291 E.01682
G1 X147.081 Y28.736 E1.04741
G1 X146.546 Y28.736 E.01682
G1 X170.636 Y52.826 E1.07119
G1 X170.636 Y53.361 E.01682
G1 X146.012 Y28.736 E1.09496
G1 X145.477 Y28.736 E.01682
G1 X170.636 Y53.895 E1.11873
G1 X170.636 Y54.43 E.01682
G1 X144.942 Y28.736 E1.14252
G1 X144.407 Y28.736 E.01682
G1 X170.636 Y54.965 E1.16631
G1 X170.636 Y55.5 E.01682
G1 X143.872 Y28.736 E1.1901
G1 X143.337 Y28.736 E.01682
M73 P2 R65
G1 X170.636 Y56.035 E1.21389
G1 X170.636 Y56.569 E.01679
G1 X142.803 Y28.735 E1.23765
G1 X142.268 Y28.735 E.01682
G1 X170.636 Y57.104 E1.26144
G1 X170.636 Y57.639 E.01682
G1 X141.733 Y28.735 E1.28523
G1 X141.198 Y28.735 E.01682
G1 X170.636 Y58.174 E1.30902
G1 X170.636 Y58.708 E.01679
G1 X140.663 Y28.735 E1.33279
G1 X140.128 Y28.735 E.01682
G1 X170.636 Y59.243 E1.35658
G1 X170.636 Y59.778 E.01682
G1 X139.594 Y28.735 E1.38035
G1 X139.059 Y28.735 E.01682
G1 X170.636 Y60.313 E1.40414
G1 X170.636 Y60.848 E.01682
G1 X138.524 Y28.735 E1.42793
G1 X137.989 Y28.735 E.01682
G1 X170.636 Y61.382 E1.45169
G1 X170.636 Y61.917 E.01682
M73 P3 R65
G1 X137.454 Y28.735 E1.47548
G1 X136.92 Y28.735 E.01679
M73 Q3 S67
G1 X170.636 Y62.452 E1.49925
G1 X170.636 Y62.987 E.01682
G1 X136.385 Y28.735 E1.52304
G1 X135.85 Y28.735 E.01682
G1 X170.636 Y63.521 E1.54681
G1 X170.636 Y63.801 E.0088
G1 X170.612 Y64.032 E.0073
G1 X135.315 Y28.735 E1.56953
G1 X134.78 Y28.735 E.01682
G1 X170.551 Y64.505 E1.59058
G1 X170.42 Y64.909 E.01335
G1 X134.245 Y28.735 E1.60855
G1 X133.711 Y28.734 E.01679
M73 Q3 S66
G1 X170.242 Y65.266 E1.62442
G1 X170.035 Y65.594 E.0122
G1 X133.176 Y28.734 E1.63901
