; generated by PrusaSlicer 2.6.1+win64 on 2023-11-10 at 11:17:59 UTC


;
;
; 

; external perimeters extrusion width = 0.45mm
; perimeters extrusion width = 0.45mm
; infill extrusion width = 0.45mm
; solid infill extrusion width = 0.45mm
; top infill extrusion width = 0.40mm
; first layer extrusion width = 0.42mm

; external perimeters extrusion width = 0.45mm
; perimeters extrusion width = 0.45mm
; infill extrusion width = 0.45mm
; solid infill extrusion width = 0.45mm
; top infill extrusion width = 0.40mm
; first layer extrusion width = 0.42mm

; external perimeters extrusion width = 0.45mm
; perimeters extrusion width = 0.45mm
; infill extrusion width = 0.45mm
; solid infill extrusion width = 0.45mm
; top infill extrusion width = 0.40mm
; first layer extrusion width = 0.42mm

; external perimeters extrusion width = 0.45mm
; perimeters extrusion width = 0.45mm
; infill extrusion width = 0.45mm
; solid infill extrusion width = 0.45mm
; top infill extrusion width = 0.40mm
; first layer extrusion width = 0.42mm

M73 P0 R56
M73 Q0 S57
M201 X1000 Y1000 Z200 E5000 ; sets maximum accelerations, mm/sec^2
M203 X200 Y200 Z12 E120 ; sets maximum feedrates, mm / sec
M204 S1250 T1250 ; sets acceleration (S) and retract acceleration (R), mm/sec^2
M205 X8.00 Y8.00 Z0.40 E4.50 ; sets the jerk limits, mm/sec
M205 S0 T0 ; sets the minimum extruding and travel feed rate, mm/sec
;TYPE:Custom
M862.3 P "MK3S" ; printer model check
M862.1 P0.4 ; nozzle diameter check
M115 U3.13.0 ; tell printer latest fw version
G90 ; use absolute coordinates
M83 ; extruder relative mode
M104 S215 ; set extruder temp
M140 S60 ; set bed temp
M190 S60 ; wait for bed temp
M109 S215 ; wait for extruder temp
G28 W ; home all without mesh bed level
G80 ; mesh bed leveling

G1 Z0.2 F720
G1 Y-3 F1000 ; go outside print area
G92 E0
G1 X60 E9 F1000 ; intro line
M73 Q0 S56
G1 X100 E12.5 F1000 ; intro line

G92 E0
M221 S95

; Don't change E values below. Excessive value can damage the printer.

M907 E538 ; set extruder motor current
G21 ; set units to millimeters
G90 ; use absolute coordinates
M83 ; use relative distances for extrusion
M900 K0.05 ; Filament gcode LA 1.5
M900 K30 ; Filament gcode LA 1.0
M107
;LAYER_CHANGE
;Z:0.2
;HEIGHT:0.2
;BEFORE_LAYER_CHANGE
G92 E0.0
;0.2


G1 E-.8 F2100
G1 Z.4 F720
;AFTER_LAYER_CHANGE
;0.2
G1 X110.103 Y70.998 F10800
G1 Z.2 F720
G1 E.8 F2100
M204 S800
;TYPE:Skirt/Brim
;WIDTH:0.42
G1 F1200
G1 X110.696 Y70.322 E.02819
G1 X111.47 Y69.862 E.02823
G1 X112.348 Y69.664 E.02822
G1 X137.562 Y69.664 E.79057
G1 X138.512 Y69.892 E.03063
G1 X139.213 Y70.322 E.02578
G1 X139.537 Y70.636 E.01415
G1 X140.047 Y71.47 E.03065
G1 X140.253 Y72.526 E.03373
G1 X140.377 Y108.458 E1.12663
G1 X140.377 Y137.466 E.90953
G1 X140.172 Y138.53 E.03397
G1 X139.931 Y139.002 E.01662
G1 X139.338 Y139.678 E.02819
G1 X138.564 Y140.138 E.02823
G1 X137.687 Y140.336 E.02819
G1 X112.658 Y140.343 E.78477
G1 X111.594 Y140.138 E.03397
G1 X110.821 Y139.678 E.0282
G1 X110.227 Y139.002 E.02822
G1 X109.871 Y138.176 E.0282
G1 X109.781 Y137.474 E.02219
G1 X109.657 Y101.542 E1.12663
G1 X109.657 Y72.534 E.90953
G1 X109.862 Y71.47 E.03397
G1 X110.075 Y71.052 E.01471
M204 S1000
; printing object motor_C_clamp_nutt.stl id:1 copy 0
;WIPE_START
G1 F8640
G1 X110.696 Y70.322 E-.2213
G1 X111.47 Y69.862 E-.2079
G1 X112.348 Y69.664 E-.20782
G1 X113.054 Y69.664 E-.16298
;WIPE_END
G1 Z.6 F720
G1 X137.213 Y128.878 F10800
G1 Z.2 F720
G1 E.8 F2100
M204 S800
;TYPE:Perimeter
;WIDTH:0.419999
G1 F1200
G1 X137.213 Y137.179 E.26027
G1 X128.787 Y137.179 E.26419
G1 X128.787 Y128.878 E.26027
G1 X137.153 Y128.878 E.26231
M204 S1000
G1 X137.573 Y128.501 F10800
M204 S800
;TYPE:External perimeter
G1 F1200
G1 X137.59 Y128.518 E.00075
G1 X137.59 Y137.388 E.27811
G1 X137.551 Y137.517 E.00423
G1 X137.454 Y137.556 E.00328
G1 X128.578 Y137.556 E.2783
G1 X128.449 Y137.517 E.00423
G1 X128.41 Y137.42 E.00328
G1 X128.42 Y128.501 E.27965
G1 X137.513 Y128.501 E.2851
M204 S1000
G1 X137.579 Y128.524 F10800
;WIPE_START
G1 F8640
G1 X137.59 Y128.518 E-.01821
G1 X137.59 Y131.904 E-.78179
;WIPE_END
G1 Z.6 F720
G1 X130.757 Y132.873 F10800
G1 Z.2 F720
G1 E.8 F2100
M204 S800
;TYPE:Perimeter
G1 F1200
G1 X130.888 Y132.404 E.01527
G1 X131.085 Y132.031 E.01323
G1 X131.43 Y131.624 E.01673
G1 X131.665 Y131.424 E.00968
G1 X132.028 Y131.21 E.01321
G1 X132.448 Y131.063 E.01395
G1 X132.984 Y130.992 E.01695
G1 X133.471 Y131.042 E.01535
G1 X133.874 Y131.167 E.01323
G1 X134.247 Y131.363 E.01321
G1 X134.578 Y131.625 E.01324
G1 X134.867 Y131.964 E.01397
G1 X135.142 Y132.483 E.01842
G1 X135.256 Y132.91 E.01386
G1 X135.282 Y133.356 E.01401
G1 X135.183 Y133.954 E.01901
G1 X135.022 Y134.344 E.01323
G1 X134.718 Y134.778 E.01661
G1 X134.501 Y135.002 E.00978
G1 X134.158 Y135.249 E.01325
G1 X133.777 Y135.428 E.0132
G1 X133.369 Y135.534 E.01322
G1 X132.948 Y135.564 E.01323
G1 X132.504 Y135.507 E.01404
G1 X131.935 Y135.301 E.01897
G1 X131.581 Y135.071 E.01324
G1 X131.276 Y134.779 E.01324
G1 X131.03 Y134.437 E.01321
G1 X130.85 Y134.055 E.01324
G1 X130.744 Y133.647 E.01322
G1 X130.715 Y133.331 E.00995
G1 X130.752 Y132.933 E.01253
M204 S1000
G1 X131.107 Y133.117 F10800
M204 S800
;TYPE:External perimeter
G1 F1200
G1 X131.126 Y132.911 E.00649
G1 X131.226 Y132.573 E.01105
G1 X131.386 Y132.259 E.01105
G1 X131.684 Y131.903 E.01456
G1 X132.133 Y131.577 E.0174
G1 X132.502 Y131.436 E.01239
G1 X133 Y131.37 E.01575
G1 X133.368 Y131.405 E.01159
G1 X133.706 Y131.504 E.01104
G1 X134.02 Y131.664 E.01105
G1 X134.299 Y131.879 E.01104
G1 X134.538 Y132.148 E.01128
G1 X134.78 Y132.589 E.01577
G1 X134.88 Y132.945 E.01159
G1 X134.908 Y133.304 E.01129
G1 X134.832 Y133.818 E.01629
G1 X134.702 Y134.145 E.01103
G1 X134.44 Y134.524 E.01445
G1 X134.02 Y134.893 E.01753
G1 X133.674 Y135.065 E.01212
G1 X133.334 Y135.159 E.01106
G1 X132.983 Y135.188 E.01104
G1 X132.624 Y135.15 E.01132
G1 X132.133 Y134.98 E.01629
G1 X131.835 Y134.792 E.01105
G1 X131.577 Y134.552 E.01105
G1 X131.367 Y134.269 E.01105
G1 X131.213 Y133.952 E.01105
G1 X131.12 Y133.612 E.01105
G1 X131.09 Y133.296 E.00995
G1 X131.101 Y133.177 E.00375
M204 S1000
G1 X130.933 Y133.004 F10800
;WIPE_START
G1 F8640
G1 X131.126 Y132.911 E-.06169
G1 X131.226 Y132.573 E-.08139
G1 X131.386 Y132.259 E-.08137
G1 X131.684 Y131.903 E-.1072
G1 X132.133 Y131.577 E-.12812
G1 X132.502 Y131.436 E-.09121
G1 X133 Y131.37 E-.116
G1 X133.368 Y131.405 E-.08536
G1 X133.566 Y131.463 E-.04766
;WIPE_END
G1 Z.6 F720
G1 X136.275 Y129.048 F10800
G1 Z.2 F720
G1 E.8 F2100
M204 S800
;TYPE:Solid infill
;WIDTH:0.422952
G1 F1200
G1 X136.874 Y129.647 E.02677
G1 X136.874 Y130.184 E.01697
G1 X135.907 Y129.217 E.04321
G1 X135.369 Y129.217 E.017
G1 X136.874 Y130.722 E.06726
G1 X136.874 Y131.259 E.01697
G1 X134.832 Y129.217 E.09125
G1 X134.295 Y129.217 E.01697
G1 X136.874 Y131.796 E.11525
G1 X136.874 Y132.334 E.017
G1 X133.757 Y129.217 E.1393
G1 X133.22 Y129.217 E.01697
G1 X136.874 Y132.871 E.16329
G1 X136.874 Y133.409 E.017
G1 X132.682 Y129.217 E.18734
G1 X132.145 Y129.217 E.01697
G1 X133.683 Y130.755 E.06873
G1 X133.879 Y130.805 E.00639
G1 X134.32 Y131.009 E.01535
G1 X134.781 Y131.347 E.01806
G1 X135.048 Y131.637 E.01246
G1 X135.158 Y131.79 E.00595
G1 X135.392 Y132.206 E.01508
G1 X135.53 Y132.603 E.01328
G1 X136.874 Y133.946 E.06004
G1 X136.874 Y134.484 E.017
G1 X135.623 Y133.233 E.05591
G1 X135.571 Y133.719 E.01545
G1 X136.874 Y135.021 E.05821
G1 X136.874 Y135.559 E.017
G1 X135.464 Y134.149 E.06301
G1 X135.382 Y134.382 E.00781
G1 X135.3 Y134.523 E.00515
G1 X136.874 Y136.096 E.07032
G1 X136.874 Y136.633 E.01697
G1 X135.093 Y134.853 E.07957
G1 X134.845 Y135.142 E.01203
G1 X136.542 Y136.84 E.07586
G1 X136.005 Y136.84 E.01697
G1 X134.551 Y135.385 E.065
G1 X134.444 Y135.471 E.00434
G1 X134.219 Y135.591 E.00806
G1 X135.467 Y136.84 E.05579
G1 X134.93 Y136.84 E.01697
G1 X133.842 Y135.752 E.04862
G1 X133.421 Y135.868 E.0138
G1 X134.392 Y136.84 E.04342
G1 X133.855 Y136.84 E.01697
G1 X132.728 Y135.713 E.05036
M204 S1000
;WIPE_START
G1 F8640
G1 X133.855 Y136.84 E-.36802
G1 X134.392 Y136.84 E-.12399
G1 X133.449 Y135.896 E-.30799
;WIPE_END
G1 Z.6 F720
G1 X133.231 Y130.841 F10800
G1 Z.2 F720
G1 E.8 F2100
M204 S800
G1 F1200
G1 X131.607 Y129.217 E.07257
G1 X131.07 Y129.217 E.01697
G1 X132.557 Y130.705 E.06647
G1 X132.362 Y130.733 E.00623
G1 X132.13 Y130.815 E.00778
G1 X130.532 Y129.217 E.07141
G1 X129.995 Y129.217 E.01697
G1 X131.756 Y130.978 E.0787
G1 X131.425 Y131.185 E.01234
G1 X129.458 Y129.217 E.08793
G1 X129.126 Y129.217 E.01049
G1 X129.126 Y129.424 E.00654
G1 X131.136 Y131.434 E.08982
G1 X130.893 Y131.728 E.01205
G1 X129.126 Y129.961 E.07897
G1 X129.126 Y130.499 E.017
G1 X130.688 Y132.06 E.06978
G1 X130.58 Y132.262 E.00724
G1 X130.525 Y132.435 E.00574
G1 X129.126 Y131.036 E.06252
G1 X129.126 Y131.574 E.017
G1 X130.418 Y132.865 E.05772
G1 X130.372 Y133.277 E.0131
G1 X130.38 Y133.365 E.00279
G1 X129.126 Y132.111 E.05604
G1 X129.126 Y132.648 E.01697
G1 X130.496 Y134.018 E.06122
G1 X130.579 Y134.295 E.00914
G1 X130.808 Y134.723 E.01534
G1 X131.11 Y135.101 E.01529
G1 X131.476 Y135.416 E.01526
G1 X131.764 Y135.594 E.0107
G1 X131.937 Y135.675 E.00604
G1 X132.262 Y135.784 E.01083
G1 X133.318 Y136.84 E.04719
G1 X132.78 Y136.84 E.017
G1 X129.126 Y133.186 E.16329
G1 X129.126 Y133.723 E.01697
M73 P0 R55
G1 X132.243 Y136.84 E.1393
G1 X131.705 Y136.84 E.017
G1 X129.126 Y134.261 E.11525
G1 X129.126 Y134.798 E.01697
G1 X131.168 Y136.84 E.09125
G1 X130.63 Y136.84 E.017
G1 X129.126 Y135.336 E.06721
G1 X129.126 Y135.873 E.01697
G1 X130.093 Y136.84 E.04321
G1 X129.555 Y136.84 E.017
G1 X128.957 Y136.241 E.02675
M204 S1000
;WIPE_START
G1 F8640
G1 X129.555 Y136.84 E-.19544
G1 X130.093 Y136.84 E-.12423
G1 X129.126 Y135.873 E-.31577
G1 X129.126 Y135.336 E-.12399
G1 X129.25 Y135.46 E-.04057
;WIPE_END
G1 Z.6 F720
G1 X137.213 Y108.757 F10800
G1 Z.2 F720
G1 E.8 F2100
M204 S800
;TYPE:Perimeter
;WIDTH:0.419999
G1 F1200
G1 X137.213 Y117.054 E.26015
G1 X128.787 Y117.054 E.26419
G1 X128.787 Y108.753 E.26027
G1 X137.153 Y108.757 E.26231
M204 S1000
G1 X137.566 Y108.427 F10800
M204 S800
;TYPE:External perimeter
G1 F1200
G1 X137.59 Y108.527 E.00322
G1 X137.58 Y117.431 E.27918
G1 X128.41 Y117.421 E.28752
G1 X128.41 Y108.544 E.27833
M73 P1 R55
M73 Q1 S56
G1 X128.449 Y108.415 E.00423
G1 X128.546 Y108.376 E.00328
G1 X137.444 Y108.38 E.27899
G1 X137.51 Y108.405 E.00221
M204 S1000
G1 X137.529 Y108.523 F10800
;WIPE_START
G1 F8640
G1 X137.59 Y108.527 E-.03369
G1 X137.586 Y111.846 E-.76631
;WIPE_END
G1 Z.6 F720
G1 X133.818 Y110.524 F10800
G1 Z.2 F720
G1 E.8 F2100
M204 S800
;TYPE:Perimeter
G1 F1200
G1 X134.247 Y110.738 E.01503
G1 X134.578 Y111 E.01324
G1 X134.867 Y111.339 E.01397
G1 X135.142 Y111.858 E.01842
G1 X135.256 Y112.285 E.01386
G1 X135.282 Y112.731 E.01401
G1 X135.183 Y113.329 E.01901
G1 X135.022 Y113.719 E.01323
G1 X134.792 Y114.072 E.01321
G1 X134.501 Y114.377 E.01322
G1 X134.158 Y114.624 E.01325
G1 X133.777 Y114.803 E.0132
G1 X133.369 Y114.909 E.01322
G1 X132.948 Y114.939 E.01323
G1 X132.504 Y114.882 E.01404
G1 X131.935 Y114.676 E.01897
G1 X131.581 Y114.446 E.01324
G1 X131.276 Y114.154 E.01324
G1 X131.03 Y113.812 E.01321
G1 X130.85 Y113.43 E.01324
G1 X130.744 Y113.022 E.01322
G1 X130.715 Y112.601 E.01323
G1 X130.764 Y112.182 E.01323
G1 X130.888 Y111.779 E.01322
G1 X131.085 Y111.406 E.01323
G1 X131.347 Y111.076 E.01321
G1 X131.665 Y110.799 E.01322
G1 X132.028 Y110.585 E.01321
G1 X132.448 Y110.438 E.01395
G1 X132.984 Y110.367 E.01695
G1 X133.471 Y110.417 E.01535
G1 X133.761 Y110.507 E.00952
M204 S1000
G1 X133.756 Y110.905 F10800
M204 S800
;TYPE:External perimeter
G1 F1200
G1 X134.02 Y111.039 E.00928
G1 X134.441 Y111.41 E.01759
G1 X134.763 Y111.924 E.01902
G1 X134.88 Y112.32 E.01295
G1 X134.908 Y112.679 E.01129
G1 X134.832 Y113.193 E.01629
G1 X134.702 Y113.52 E.01103
G1 X134.513 Y113.818 E.01106
G1 X134.274 Y114.076 E.01103
G1 X133.99 Y114.286 E.01107
G1 X133.674 Y114.44 E.01102
G1 X133.334 Y114.534 E.01106
G1 X132.983 Y114.563 E.01104
G1 X132.624 Y114.525 E.01132
G1 X132.133 Y114.355 E.01629
G1 X131.684 Y114.029 E.0174
G1 X131.367 Y113.644 E.01564
G1 X131.213 Y113.327 E.01105
G1 X131.12 Y112.987 E.01105
G1 X131.09 Y112.636 E.01105
G1 X131.126 Y112.286 E.01103
G1 X131.226 Y111.948 E.01105
G1 X131.386 Y111.634 E.01105
G1 X131.601 Y111.354 E.01107
G1 X131.863 Y111.119 E.01104
G1 X132.164 Y110.936 E.01104
G1 X132.502 Y110.811 E.0113
G1 X133 Y110.745 E.01575
G1 X133.368 Y110.78 E.01159
G1 X133.702 Y110.878 E.01091
M204 S1000
G1 X133.989 Y110.722 F10800
;WIPE_START
G1 F8640
G1 X134.02 Y111.039 E-.0823
G1 X134.441 Y111.41 E-.12957
G1 X134.763 Y111.924 E-.14005
G1 X134.88 Y112.32 E-.09534
G1 X134.908 Y112.679 E-.08315
G1 X134.832 Y113.193 E-.11997
G1 X134.702 Y113.52 E-.08125
G1 X134.543 Y113.77 E-.06837
;WIPE_END
G1 Z.6 F720
G1 X137.043 Y109.695 F10800
G1 Z.2 F720
G1 E.8 F2100
M204 S800
;TYPE:Solid infill
;WIDTH:0.422856
G1 F1200
G1 X136.444 Y109.096 E.02676
G1 X135.907 Y109.096 E.01696
G1 X136.874 Y110.063 E.0432
G1 X136.874 Y110.6 E.01696
G1 X135.369 Y109.096 E.06722
G1 X134.832 Y109.095 E.01696
G1 X136.874 Y111.137 E.09123
G1 X136.874 Y111.675 E.017
G1 X134.294 Y109.095 E.11527
G1 X133.756 Y109.095 E.017
G1 X136.874 Y112.212 E.13928
G1 X136.874 Y112.749 E.01696
G1 X133.219 Y109.095 E.16327
G1 X132.681 Y109.094 E.017
G1 X133.729 Y110.142 E.04682
G1 X133.879 Y110.18 E.00489
G1 X134.314 Y110.382 E.01515
G1 X134.448 Y110.464 E.00496
G1 X134.821 Y110.763 E.0151
G1 X135.048 Y111.012 E.01064
G1 X135.159 Y111.165 E.00597
G1 X135.392 Y111.581 E.01506
G1 X135.516 Y111.929 E.01167
G1 X136.874 Y113.287 E.06067
G1 X136.874 Y113.824 E.01696
G1 X135.618 Y112.569 E.05609
G1 X135.628 Y112.654 E.0027
G1 X135.575 Y113.063 E.01303
G1 X136.874 Y114.361 E.05801
G1 X136.874 Y114.899 E.017
G1 X135.473 Y113.498 E.06259
G1 X135.382 Y113.757 E.00867
G1 X135.313 Y113.876 E.00435
G1 X136.874 Y115.436 E.06972
G1 X136.874 Y115.973 E.01696
G1 X135.11 Y114.209 E.07881
G1 X134.859 Y114.496 E.01205
G1 X136.874 Y116.511 E.09003
G1 X136.874 Y116.715 E.00644
G1 X136.54 Y116.715 E.01055
G1 X134.572 Y114.746 E.08795
G1 X134.443 Y114.846 E.00516
G1 X134.242 Y114.954 E.00721
G1 X136.003 Y116.715 E.07868
G1 X135.466 Y116.715 E.01696
G1 X133.87 Y115.118 E.07133
G1 X133.453 Y115.24 E.01373
G1 X134.928 Y116.715 E.0659
G1 X134.391 Y116.715 E.01696
G1 X132.767 Y115.091 E.07256
M204 S1000
;WIPE_START
G1 F8640
G1 X134.391 Y116.715 E-.53031
G1 X134.928 Y116.715 E-.12399
G1 X134.482 Y116.269 E-.1457
;WIPE_END
G1 Z.6 F720
G1 X133.269 Y110.219 F10800
G1 Z.2 F720
G1 E.8 F2100
M204 S800
G1 F1200
G1 X132.144 Y109.094 E.05026
G1 X131.606 Y109.094 E.017
G1 X132.587 Y110.075 E.04383
G1 X132.362 Y110.108 E.00718
G1 X132.155 Y110.18 E.00692
G1 X131.069 Y109.094 E.04852
G1 X130.531 Y109.093 E.017
G1 X131.778 Y110.34 E.05571
G1 X131.444 Y110.544 E.01236
G1 X129.993 Y109.093 E.06483
G1 X129.456 Y109.093 E.01696
G1 X131.16 Y110.797 E.07613
G1 X131.045 Y110.898 E.00484
G1 X130.91 Y111.085 E.00729
G1 X129.126 Y109.301 E.0797
G1 X129.126 Y109.838 E.01696
G1 X130.696 Y111.408 E.07014
G1 X130.526 Y111.775 E.01278
G1 X129.126 Y110.375 E.06255
G1 X129.126 Y110.913 E.017
G1 X130.417 Y112.204 E.05768
G1 X130.377 Y112.7 E.01572
G1 X129.126 Y111.45 E.05587
G1 X129.126 Y111.987 E.01696
G1 X130.48 Y113.341 E.06049
G1 X130.579 Y113.67 E.01085
G1 X130.808 Y114.098 E.01534
G1 X131.11 Y114.476 E.01528
G1 X131.476 Y114.791 E.01526
G1 X131.764 Y114.969 E.0107
G1 X131.937 Y115.05 E.00603
G1 X132.316 Y115.177 E.01263
G1 X133.854 Y116.715 E.06871
G1 X133.316 Y116.715 E.017
G1 X129.126 Y112.525 E.1872
G1 X129.126 Y113.062 E.01696
G1 X132.779 Y116.715 E.16321
G1 X132.242 Y116.715 E.01696
G1 X129.126 Y113.599 E.13922
G1 X129.126 Y114.137 E.017
G1 X131.704 Y116.715 E.11518
G1 X131.167 Y116.715 E.01696
G1 X129.126 Y114.674 E.09119
G1 X129.126 Y115.211 E.01696
G1 X130.63 Y116.715 E.0672
G1 X130.093 Y116.715 E.01696
G1 X129.126 Y115.748 E.0432
G1 X129.126 Y116.286 E.017
G1 X129.725 Y116.884 E.02674
M204 S1000
; stop printing object motor_C_clamp_nutt.stl id:1 copy 0
; printing object motor_C_clamp_nutt.stl id:0 copy 0
;WIPE_START
G1 F8640
G1 X129.126 Y116.286 E-.19544
